themes/etch/static/img/funders/schmidt.svg

<svg class="logo" width="238" height="33" viewBox="0 0 238 33" fill="none" xmlns="http://www.w3.org/2000/svg">
<path d="M7.368 25.144C6.12 25.144 4.92 24.944 3.768 24.544C2.632 24.144 1.752 23.616 1.128 22.96L1.824 21.592C2.432 22.2 3.24 22.696 4.248 23.08C5.256 23.448 6.296 23.632 7.368 23.632C8.872 23.632 10 23.36 10.752 22.816C11.504 22.256 11.88 21.536 11.88 20.656C11.88 19.984 11.672 19.448 11.256 19.048C10.856 18.648 10.36 18.344 9.768 18.136C9.176 17.912 8.352 17.672 7.296 17.416C6.032 17.096 5.024 16.792 4.272 16.504C3.52 16.2 2.872 15.744 2.328 15.136C1.8 14.528 1.536 13.704 1.536 12.664C1.536 11.816 1.76 11.048 2.208 10.36C2.656 9.656 3.344 9.096 4.272 8.68C5.2 8.264 6.352 8.056 7.728 8.056C8.688 8.056 9.624 8.192 10.536 8.464C11.464 8.72 12.264 9.08 12.936 9.544L12.336 10.96C11.632 10.496 10.88 10.152 10.08 9.928C9.28 9.688 8.496 9.568 7.728 9.568C6.256 9.568 5.144 9.856 4.392 10.432C3.656 10.992 3.288 11.72 3.288 12.616C3.288 13.288 3.488 13.832 3.888 14.248C4.304 14.648 4.816 14.96 5.424 15.184C6.048 15.392 6.88 15.624 7.92 15.88C9.152 16.184 10.144 16.488 10.896 16.792C11.664 17.08 12.312 17.528 12.84 18.136C13.368 18.728 13.632 19.536 13.632 20.56C13.632 21.408 13.4 22.184 12.936 22.888C12.488 23.576 11.792 24.128 10.848 24.544C9.904 24.944 8.744 25.144 7.368 25.144ZM24.7976 25.144C23.1336 25.144 21.6296 24.776 20.2856 24.04C18.9576 23.304 17.9096 22.288 17.1416 20.992C16.3896 19.68 16.0136 18.216 16.0136 16.6C16.0136 14.984 16.3896 13.528 17.1416 12.232C17.9096 10.92 18.9656 9.896 20.3096 9.16C21.6536 8.424 23.1576 8.056 24.8216 8.056C26.0696 8.056 27.2216 8.264 28.2776 8.68C29.3336 9.096 30.2296 9.704 30.9656 10.504L29.8376 11.632C28.5256 10.304 26.8696 9.64 24.8696 9.64C23.5416 9.64 22.3336 9.944 21.2456 10.552C20.1576 11.16 19.3016 11.992 18.6776 13.048C18.0696 14.104 17.7656 15.288 17.7656 16.6C17.7656 17.912 18.0696 19.096 18.6776 20.152C19.3016 21.208 20.1576 22.04 21.2456 22.648C22.3336 23.256 23.5416 23.56 24.8696 23.56C26.8856 23.56 28.5416 22.888 29.8376 21.544L30.9656 22.672C30.2296 23.472 29.3256 24.088 28.2536 24.52C27.1976 24.936 26.0456 25.144 24.7976 25.144ZM48.7916 8.2V25H47.0396V17.248H36.5276V25H34.7516V8.2H36.5276V15.688H47.0396V8.2H48.7916ZM71.7231 8.2V25H70.0191V11.56L63.4191 22.864H62.5791L55.9791 11.632V25H54.2751V8.2H55.7391L63.0351 20.656L70.2591 8.2H71.7231ZM77.1969 8.2H78.9729V25H77.1969V8.2ZM84.4391 8.2H91.2791C93.0551 8.2 94.6231 8.56 95.9831 9.28C97.3431 9.984 98.3991 10.976 99.1511 12.256C99.9031 13.52 100.279 14.968 100.279 16.6C100.279 18.232 99.9031 19.688 99.1511 20.968C98.3991 22.232 97.3431 23.224 95.9831 23.944C94.6231 24.648 93.0551 25 91.2791 25H84.4391V8.2ZM91.1831 23.464C92.6551 23.464 93.9431 23.176 95.0471 22.6C96.1511 22.008 97.0071 21.2 97.6151 20.176C98.2231 19.136 98.5271 17.944 98.5271 16.6C98.5271 15.256 98.2231 14.072 97.6151 13.048C97.0071 12.008 96.1511 11.2 95.0471 10.624C93.9431 10.032 92.6551 9.736 91.1831 9.736H86.2151V23.464H91.1831ZM107.297 9.736H101.393V8.2H114.977V9.736H109.073V25H107.297V9.736ZM127.239 11.32V15.76H135.015V18.88H127.239V25H123.351V8.2H136.047V11.32H127.239ZM146.144 25.288C143.744 25.288 141.872 24.624 140.528 23.296C139.2 21.968 138.536 20.072 138.536 17.608V8.2H142.424V17.464C142.424 20.472 143.672 21.976 146.168 21.976C147.384 21.976 148.312 21.616 148.952 20.896C149.592 20.16 149.911 19.016 149.911 17.464V8.2H153.752V17.608C153.752 20.072 153.08 21.968 151.736 23.296C150.408 24.624 148.544 25.288 146.144 25.288ZM160.792 11.368H155.416V8.2H170.056V11.368H164.68V25H160.792V11.368ZM179.331 25.288C176.931 25.288 175.059 24.624 173.715 23.296C172.387 21.968 171.723 20.072 171.723 17.608V8.2H175.611V17.464C175.611 20.472 176.859 21.976 179.355 21.976C180.571 21.976 181.499 21.616 182.139 20.896C182.779 20.16 183.099 19.016 183.099 17.464V8.2H186.939V17.608C186.939 20.072 186.267 21.968 184.923 23.296C183.595 24.624 181.731 25.288 179.331 25.288ZM201.485 25L198.245 20.32H198.053H194.669V25H190.781V8.2H198.053C199.541 8.2 200.829 8.448 201.917 8.944C203.021 9.44 203.869 10.144 204.461 11.056C205.053 11.968 205.349 13.048 205.349 14.296C205.349 15.544 205.045 16.624 204.437 17.536C203.845 18.432 202.997 19.12 201.893 19.6L205.661 25H201.485ZM201.413 14.296C201.413 13.352 201.109 12.632 200.501 12.136C199.893 11.624 199.005 11.368 197.837 11.368H194.669V17.224H197.837C199.005 17.224 199.893 16.968 200.501 16.456C201.109 15.944 201.413 15.224 201.413 14.296ZM221.438 21.88V25H208.43V8.2H221.126V11.32H212.294V14.968H220.094V17.992H212.294V21.88H221.438ZM230.051 25.288C228.723 25.288 227.435 25.112 226.187 24.76C224.955 24.392 223.963 23.92 223.211 23.344L224.531 20.416C225.251 20.944 226.107 21.368 227.099 21.688C228.091 22.008 229.083 22.168 230.075 22.168C231.179 22.168 231.995 22.008 232.523 21.688C233.051 21.352 233.315 20.912 233.315 20.368C233.315 19.968 233.155 19.64 232.835 19.384C232.531 19.112 232.131 18.896 231.635 18.736C231.155 18.576 230.499 18.4 229.667 18.208C228.387 17.904 227.339 17.6 226.523 17.296C225.707 16.992 225.003 16.504 224.411 15.832C223.835 15.16 223.547 14.264 223.547 13.144C223.547 12.168 223.811 11.288 224.339 10.504C224.867 9.704 225.659 9.072 226.715 8.608C227.787 8.144 229.091 7.912 230.627 7.912C231.699 7.912 232.747 8.04 233.771 8.296C234.795 8.552 235.691 8.92 236.459 9.4L235.259 12.352C233.707 11.472 232.155 11.032 230.603 11.032C229.515 11.032 228.707 11.208 228.179 11.56C227.667 11.912 227.411 12.376 227.411 12.952C227.411 13.528 227.707 13.96 228.299 14.248C228.907 14.52 229.827 14.792 231.059 15.064C232.339 15.368 233.387 15.672 234.203 15.976C235.019 16.28 235.715 16.76 236.291 17.416C236.883 18.072 237.179 18.96 237.179 20.08C237.179 21.04 236.907 21.92 236.363 22.72C235.835 23.504 235.035 24.128 233.963 24.592C232.891 25.056 231.587 25.288 230.051 25.288Z" fill="black"/>
                    </svg>

<svg xmlns="http://www.w3.org/2000/svg" width="238" height="33" fill="none" class="logo" viewBox="0 0 238 33"><path fill="#000" d="M7.368 25.144q-1.872 0-3.6-.6-1.704-.6-2.64-1.584l.696-1.368q.912.912 2.424 1.488a9 9 0 0 0 3.12.552q2.256 0 3.384-.816 1.128-.84 1.128-2.16 0-1.008-.624-1.608-.6-.6-1.488-.912-.888-.336-2.472-.72-1.896-.48-3.024-.912a5.2 5.2 0 0 1-1.944-1.368q-.792-.912-.792-2.472 0-1.272.672-2.304.672-1.056 2.064-1.68t3.456-.624q1.44 0 2.808.408 1.392.384 2.4 1.08l-.6 1.416a8 8 0 0 0-2.256-1.032 8.2 8.2 0 0 0-2.352-.36q-2.208 0-3.336.864-1.104.84-1.104 2.184 0 1.008.6 1.632.624.6 1.536.936.936.312 2.496.696 1.848.456 2.976.912a4.73 4.73 0 0 1 1.944 1.344q.792.888.792 2.424 0 1.272-.696 2.328-.672 1.032-2.088 1.656-1.416.6-3.48.6m17.43 0q-2.496 0-4.512-1.104a8.2 8.2 0 0 1-3.144-3.048q-1.128-1.968-1.128-4.392t1.128-4.368A8.1 8.1 0 0 1 20.31 9.16q2.016-1.104 4.512-1.104 1.872 0 3.456.624a7.2 7.2 0 0 1 2.688 1.824l-1.128 1.128Q27.87 9.64 24.87 9.64q-1.992 0-3.624.912a6.75 6.75 0 0 0-2.568 2.496q-.912 1.584-.912 3.552t.912 3.552a6.75 6.75 0 0 0 2.568 2.496q1.632.912 3.624.912 3.024 0 4.968-2.016l1.128 1.128q-1.104 1.2-2.712 1.848-1.584.624-3.456.624M48.792 8.2V25H47.04v-7.752H36.528V25h-1.776V8.2h1.776v7.488H47.04V8.2zm22.931 0V25H70.02V11.56l-6.6 11.304h-.84l-6.6-11.232V25h-1.704V8.2h1.464l7.296 12.456L70.26 8.2zm5.474 0h1.776V25h-1.776zm7.242 0h6.84q2.664 0 4.704 1.08 2.04 1.056 3.168 2.976 1.128 1.896 1.128 4.344t-1.128 4.368q-1.128 1.896-3.168 2.976Q93.943 25 91.28 25h-6.84zm6.744 15.264q2.208 0 3.864-.864 1.656-.888 2.568-2.424.912-1.56.912-3.576t-.912-3.552q-.912-1.56-2.568-2.424-1.656-.888-3.864-.888h-4.968v13.728zm16.114-13.728h-5.904V8.2h13.584v1.536h-5.904V25h-1.776zm19.942 1.584v4.44h7.776v3.12h-7.776V25h-3.888V8.2h12.696v3.12zm18.905 13.968q-3.6 0-5.616-1.992-1.992-1.992-1.992-5.688V8.2h3.888v9.264q0 4.512 3.744 4.512 1.824 0 2.784-1.08.96-1.104.959-3.432V8.2h3.841v9.408q0 3.696-2.016 5.688-1.992 1.992-5.592 1.992m14.648-13.92h-5.376V8.2h14.64v3.168h-5.376V25h-3.888zm18.539 13.92q-3.6 0-5.616-1.992-1.992-1.992-1.992-5.688V8.2h3.888v9.264q0 4.512 3.744 4.512 1.824 0 2.784-1.08.96-1.104.96-3.432V8.2h3.84v9.408q0 3.696-2.016 5.688-1.992 1.992-5.592 1.992M201.485 25l-3.24-4.68h-3.576V25h-3.888V8.2h7.272q2.232 0 3.864.744 1.656.744 2.544 2.112t.888 3.24-.912 3.24q-.888 1.344-2.544 2.064l3.768 5.4zm-.072-10.704q0-1.416-.912-2.16-.912-.768-2.664-.768h-3.168v5.856h3.168q1.752 0 2.664-.768t.912-2.16m20.025 7.584V25H208.43V8.2h12.696v3.12h-8.832v3.648h7.8v3.024h-7.8v3.888zm8.613 3.408q-1.992 0-3.864-.528-1.848-.552-2.976-1.416l1.32-2.928q1.08.792 2.568 1.272t2.976.48q1.656 0 2.448-.48.792-.504.792-1.32 0-.6-.48-.984-.456-.408-1.2-.648-.72-.24-1.968-.528-1.92-.456-3.144-.912a5.2 5.2 0 0 1-2.112-1.464q-.864-1.008-.864-2.688 0-1.464.792-2.64.792-1.2 2.376-1.896 1.608-.696 3.912-.696 1.608 0 3.144.384t2.688 1.104l-1.2 2.952q-2.328-1.32-4.656-1.32-1.632 0-2.424.528-.768.528-.768 1.392t.888 1.296q.912.408 2.76.816 1.92.456 3.144.912a5.1 5.1 0 0 1 2.088 1.44q.888.984.888 2.664 0 1.44-.816 2.64-.792 1.176-2.4 1.872t-3.912.696"/></svg>
